!!!COM: Henri Reber
!!!CNT: Francais
!!!TXO: Francais
!!!OTL: Au bord du ruisseau
!!!LYR: Phillipe Quinalt
!!!ODT: 1847/
!!!ENC: Jacob Pegg
!!!YOR: Romantic French Song 1830-1870, David Tunley, ed., New York: Garland Publishing, Inc., 1995, vol. 3
!!NB: Vocal melody and text only encoded.
!!NB: First instance of melodic material only encoded.
**kern	**silbe
*clef G2	*
*k[b-]	*
*M6/8	*
=6	=6
4r	.
8r	.
4r	.
{8a	{Fon-
=7	=7
(2.a	-tai-
=8	=8
8d)	-ne,
8g	qui
8a	d'une
(8cc	eau
8b-)	|
8a	si
=9	=9
(4.a	pu-
8g)}	-re}
{8g	{Ar-
8g	-ro-
=10	=10
2.f	-sez
=11	=11
4f	ces
8f	bril-
(8a	-lan-
8g)	|
8f	-tes
=12	=12
4.e}	fleurs,}
4r	.
{8a	{En
=13	=13
2.a	vain
=14	=14
8g	vo-
8a	-tre
8b-	char-
4cc	-mant
8b-	mur-
=15	=15
(4.a	-mu-
4.g)}	-re}
=16	=16
{4f	{Flat-
8f	-te
4e	le
8e	tour-
=17	=17
4.a	-ment,
4g	le
8b-	tour-
!!8g in second verse
=18	=18
4.b-	-ment
4b-	que
8b-	j'en-
=19	=19
4.b-	-du-
4a}	-re;}
8r	.
=20	=20
{4.cc	{Rien
4.bn	ne
=21	=21
[4.a	pent
8a]	|
8g	a-
8f	-dou-
=22	=22
[4.e	-cir-
8e]	|
8f#	-mes
8g#	mor-
=23	=23
[4.a	-tel
8a]	|
8a	-les
(16.g#	dou-
32bn)	|
=24	=24
[4.bn	-leurs.
8bn]}	|}
8r	.
8r	.
=25	=25
{4.ee	{Rien
4.dd	ne
=26	=26
4.cc	peut
4bn	a-
8bn	-dou-
=27	=27
4.a	-cir
4a	mes
8a	mor-
=28	=28
[4.a	-tel-
8a]	|
(8g#	-les
g#q	|
8bn)	dou-
=29	=29
4.a}	-leurs.}
4r	.
8r	.
=53	=53
4r	.
8r	.
8r	.
{8a	{Ce
8a	que
=54	=54
([4.ccn	j'ai
4ccn]	|
8b-)	|
=55	=55
8a	-me
8r	.
8a	me
4.g#}	fuit,}
=56	=56
4r	.
8r	.
8r	.
{8a	{ce
8a	que
=57	=57
([4.cc	j'ai-
4cc]	|
8b-)	|
=58	=58
8a	-me
8r	.
8a	me
4.gn}	fuit,}
=59	=59
4r	.
8r	.
{4g	{et
8g	je
=60	=60
4.g	fuis
4b-	tout
8a-	le
=61	=61
4.g	mon-
4g}	-de.}
8r	.
=62	=62
4r	.
8r	.
4r	.
{8g#	{Pour-
=63	=63
4a	-quoi
8a	train-
4b-	-er
8b-	plus
=64	=64
4.cc	loin
4.cc#	ma
=65	=65
[2.dd	vie
=66	=66
4dd]}	|}
{(8dd	{et
4g#)	mes
8g#	mal-
=67	=67
[4.a	-heurs?
8a]}	|}
8r	.
8r	.
=68	=68
2.r	.
=69	=69
4r	.
8r	.
4r	.
{8a	{Ruis-
=70	=70
2.a	-seau,
=71	=71
8r	.
8g	je
8a	vais
8cc	me^-
8b-	-ler
8a	mon
=72	=72
4a	sang
8a	a-
4bn	-vec
8cc#	ton
=73	=73
4.dd	on-
4a}	-de;}
8r	.
=74	=74
{4.a	{C'est
4.cc	trop
=75	=75
4.aa	peu
4g	d'y
8g	me^-
=76	=76
4.f	-ler
([4e	mes
16e]	|
16b-)	|
=77	=77
2.b-}	pleurs.}
=78	=78
{4.b-	{C'est
4.b-	trop
=79	=79
4.b-	peu
4b-	d'y
8b-	me^-
=80	=80
[2.a	-ler
=81	=81
4.a]	|
4.a	mes
=83	=83
[2.a	pleurs.
=84	=84
4a]}	|}
8r	.
4r	.
8r	.
*-	*-
